X: 1
T: Finn-Olle's Snoa
C: Finn-Olle Nilsson
R: march, snoa
%S: s:2 b:20(10+10)
R: march
S: https://natunelist.net/fin-olles-snoa/ 2021-6-7
Z: 2021 John Chambers <jc:trillian.mit.edu>
M: 4/4
L: 1/8
K: G
|: B,C \
| "G"D3C B,2D2 | G6 AB | "C"c3G E2G2 | c6 Bc |\
| "D"d3c A2F2 | D2F2 A2F2 |[1,3 G3E "D"D2C2 | "G"B,6 |2,4 "C"G3A "D"G2F2 | "G"G6 :|
|: AB \
|:"C"c3G E2G2 | c2e2 d2c2 | "G"B3G D2G2 | B2d2 c2B2 |\
| "D"A3F D2F2 | A2c2 A2F2 |[1,3 "G"G3A "D"BABc | "G"d6 cB :|2,4 "C"G3A "D"G2F2 | "G"G6 :|
